build/img/sprite/icon-dzen.svg

<svg id="dzen" width="26" height="26" viewBox="0 0 26 26" fill="currentColor" xmlns="http://www.w3.org/2000/svg">
<g id="Group 237">
<rect id="Rectangle 137" width="26" height="26" fill="currentColor"/>
<path id="Soft Star" d="M12.7598 3.23039C12.7936 2.9232 13.2064 2.9232 13.2402 3.23039L13.5233 5.80746C13.889 9.13516 16.3186 11.7588 19.4001 12.1536L21.7866 12.4594C22.0711 12.4959 22.0711 12.9417 21.7866 12.9781L19.4001 13.2839C16.3186 13.6788 13.889 16.3024 13.5233 19.6301L13.2402 22.2071C13.2064 22.5143 12.7936 22.5143 12.7598 22.2071L12.4767 19.6301C12.111 16.3024 9.68142 13.6788 6.59983 13.2839L4.21336 12.9781C3.92888 12.9417 3.92888 12.4959 4.21336 12.4594L6.59983 12.1536C9.68142 11.7588 12.111 9.13516 12.4767 5.80746L12.7598 3.23039Z" fill="white"/>
</g>
</svg>

<svg width="26" height="26" fill="currentColor" xmlns="http://www.w3.org/2000/svg"><path d="M0 0h26v26H0z"/><path d="M12.76 3.23a.24.24 0 0 1 .48 0l.283 2.577c.366 3.328 2.796 5.952 5.877 6.347l2.387.305c.284.037.284.483 0 .52l-2.387.305c-3.081.395-5.511 3.018-5.877 6.346l-.283 2.577a.24.24 0 0 1-.48 0l-.283-2.577C12.11 16.302 9.68 13.68 6.6 13.284l-2.387-.306c-.284-.036-.284-.482 0-.519l2.387-.305c3.081-.395 5.511-3.019 5.877-6.347l.283-2.577Z" fill="#fff"/></svg>
